kritiquo/img/video-button.svg

<?xml version="1.0" encoding="UTF-8"?>
<svg width="144px" height="119px" viewBox="0 0 144 119" version="1.1" xmlns="http://www.w3.org/2000/svg" xmlns:xlink="http://www.w3.org/1999/xlink">
    <title>2AD3F5B8-DA57-4B35-899B-78D4FD681F5B</title>
    <defs>
        <path d="M168.729008,81.5135798 L196,81 L223.270992,81.5135798 C231.077378,81.6605933 237.387604,87.8839249 237.597703,95.6430078 L238,110.5 L237.597703,125.356992 C237.387604,133.116075 231.077378,139.339407 223.270992,139.48642 L196,140 L168.729008,139.48642 C160.922622,139.339407 154.612396,133.116075 154.402297,125.356992 L154,110.5 L154.402297,95.6430078 C154.612396,87.8839249 160.922622,81.6605933 168.729008,81.5135798 Z M187,98 L187,123 L209,110.5 L187,98 Z" id="path-1"></path>
        <filter x="-54.8%" y="-74.6%" width="209.5%" height="255.9%" filterUnits="objectBoundingBox" id="filter-2">
            <feOffset dx="0" dy="2" in="SourceAlpha" result="shadowOffsetOuter1"></feOffset>
            <feGaussianBlur stdDeviation="15" in="shadowOffsetOuter1" result="shadowBlurOuter1"></feGaussianBlur>
            <feColorMatrix values="0 0 0 0 0   0 0 0 0 0   0 0 0 0 0  0 0 0 0.5 0" type="matrix" in="shadowBlurOuter1"></feColorMatrix>
        </filter>
    </defs>
    <g id="Page-1" stroke="none" stroke-width="1" fill="none" fill-rule="evenodd">
        <g id="About" transform="translate(-1304, -1276)">
            <g id="Group-5" transform="translate(347, 1151)">
                <g id="Combined-Shape-Copy-3" transform="translate(833, 72)">
                    <use fill="black" fill-opacity="1" filter="url(#filter-2)" xlink:href="#path-1"></use>
                    <use fill="#FFFFFF" fill-rule="evenodd" xlink:href="#path-1"></use>
                </g>
            </g>
        </g>
    </g>
</svg>

<svg width="144" height="119" xmlns="http://www.w3.org/2000/svg" xmlns:xlink="http://www.w3.org/1999/xlink"><defs><filter x="-54.8%" y="-74.6%" width="209.5%" height="255.9%" filterUnits="objectBoundingBox" id="a"><feOffset dy="2" in="SourceAlpha" result="shadowOffsetOuter1"/><feGaussianBlur stdDeviation="15" in="shadowOffsetOuter1" result="shadowBlurOuter1"/><feColorMatrix values="0 0 0 0 0 0 0 0 0 0 0 0 0 0 0 0 0 0 0.5 0" in="shadowBlurOuter1"/></filter><path d="M168.729 81.514L196 81l27.271.514c7.806.147 14.117 6.37 14.327 14.129L238 110.5l-.402 14.857c-.21 7.76-6.52 13.982-14.327 14.13L196 140l-27.271-.514c-7.806-.147-14.117-6.37-14.327-14.129L154 110.5l.402-14.857c.21-7.76 6.52-13.982 14.327-14.13zM187 98v25l22-12.5L187 98z" id="b"/></defs><g transform="translate(-124 -53)" fill="none" fill-rule="evenodd"><use fill="#000" filter="url(#a)" xlink:href="#b"/><use fill="#FFF" xlink:href="#b"/></g></svg>
